//Set server options, run before start of server.

(
Server.local.options.blockSize = 128; 
Server.internal.options.blockSize = 128;

Server.local.options.sampleRate = 96000;
Server.internal.options.sampleRate = 96000;
)